X:258
T: Ein alter Ruf an St. Lorenz
N: A0615A
O: Europa, Mitteleuropa, Deutschland
N: Beuttner 1602 II No. 67.
R: Romanze, Ballade, Lied, religioeses Lied
M: 4/2
L: 1/4
K: G
G2 | G2A2B2c2 | d4d2
d2 | e2d2B2c2 | d3cB2
d2 | c2B2A2c2 | B3AG2
B2 | A2GGA2A2 | G6

@@@ Tune index: 571
